packages/foundations/assets/icons/functional/images/navigation/log_in.svg

<svg xmlns="http://www.w3.org/2000/svg" width="32" height="32" fill="none"><path fill="#1A1C1F" fill-rule="evenodd" d="M18.853 4.101c-.663.306-.81 1.119-.29 1.614a.92.92 0 0 0 .477.253c.179.039 1.323.059 3.359.059q3.086 0 3.238.057c.202.076.379.248.502.487.098.192.101.46.101 9.429 0 9.057-.002 9.235-.104 9.435a.98.98 0 0 1-.697.534c-.178.038-1.341.058-3.375.059H18.96l-.212.12c-.396.225-.592.716-.454 1.135.091.276.397.597.631.662.122.034 1.406.055 3.426.055 3.05 0 3.255-.006 3.646-.106.545-.139.937-.369 1.376-.805q.622-.62.813-1.517c.119-.559.119-18.585 0-19.144-.251-1.183-1.159-2.107-2.314-2.352-.279-.059-1.017-.074-3.579-.074-3.024 0-3.24.007-3.44.099m-5.081 5.025c-.442.219-.658.908-.425 1.355.046.089 1.073 1.133 2.283 2.32l2.199 2.159-6.661.027c-6.396.025-6.669.03-6.864.127-.412.204-.639.71-.519 1.151.082.298.384.61.67.689.149.041 2.157.059 6.798.059h6.587l-2.221 2.227c-1.222 1.225-2.251 2.285-2.288 2.357a1.2 1.2 0 0 0-.066.409c0 .739.746 1.198 1.428.878.265-.124 6.395-6.251 6.478-6.474.031-.083.056-.277.056-.431a.78.78 0 0 0-.158-.517c-.261-.391-6.185-6.271-6.414-6.366a1.1 1.1 0 0 0-.883.03"/></svg>

<svg width="32" height="32" viewBox="0 0 32 32" fill="none" xmlns="http://www.w3.org/2000/svg"><path d="M18.853 4.101 C 18.190 4.407,18.043 5.220,18.563 5.715 C 18.706 5.852,18.848 5.927,19.040 5.968 C 19.219 6.007,20.363 6.027,22.399 6.027 C 24.456 6.027,25.536 6.046,25.637 6.084 C 25.839 6.160,26.016 6.332,26.139 6.571 C 26.237 6.763,26.240 7.031,26.240 16.000 C 26.240 25.057,26.238 25.235,26.136 25.435 C 25.990 25.722,25.756 25.901,25.439 25.969 C 25.261 26.007,24.098 26.027,22.064 26.028 L 18.960 26.028 18.748 26.148 C 18.352 26.373,18.156 26.864,18.294 27.283 C 18.385 27.559,18.691 27.880,18.925 27.945 C 19.047 27.979,20.331 28.000,22.351 28.000 C 25.401 28.000,25.606 27.994,25.997 27.894 C 26.542 27.755,26.934 27.525,27.373 27.089 C 27.787 26.677,28.059 26.169,28.186 25.572 C 28.305 25.013,28.305 6.987,28.186 6.428 C 27.935 5.245,27.027 4.321,25.872 4.076 C 25.593 4.017,24.855 4.002,22.293 4.002 C 19.269 4.002,19.053 4.009,18.853 4.101 M13.772 9.126 C 13.330 9.345,13.114 10.034,13.347 10.481 C 13.393 10.570,14.420 11.614,15.630 12.801 L 17.829 14.960 11.168 14.987 C 4.772 15.012,4.499 15.017,4.304 15.114 C 3.892 15.318,3.665 15.824,3.785 16.265 C 3.867 16.563,4.169 16.875,4.455 16.954 C 4.604 16.995,6.612 17.013,11.253 17.013 L 17.840 17.013 15.619 19.240 C 14.397 20.465,13.368 21.525,13.331 21.597 C 13.295 21.669,13.265 21.853,13.265 22.006 C 13.265 22.745,14.011 23.204,14.693 22.884 C 14.958 22.760,21.088 16.633,21.171 16.410 C 21.202 16.327,21.227 16.133,21.227 15.979 C 21.227 15.757,21.194 15.649,21.069 15.462 C 20.808 15.071,14.884 9.191,14.655 9.096 C 14.380 8.981,14.041 8.993,13.772 9.126 " fill="#1A1C1F" stroke="none" fill-rule="evenodd"></path></svg>
